lib/preview/nrk-logo-preview-nrk-stor-oslo-title-below-on-dark.svg

<svg width="74" height="41" viewBox="0 0 74 41" fill="none" xmlns="http://www.w3.org/2000/svg">
<path d="M0 17.9975V5.99862H4V17.9975H0ZM9.24381 7.90831L11.5081 17.9975H7.19917L4.49549 5.99862H6.91217C7.46635 5.99143 8.00406 6.18678 8.4245 6.54792C8.84562 6.89391 9.08495 7.37423 9.24381 7.90831ZM12 17.9975V5.99862H16V17.9975H12ZM19.0105 10.5616C18.5862 10.5658 18.1687 10.4548 17.8025 10.2405C17.4412 10.0316 17.1411 9.73149 16.9323 9.37013C16.7178 9.00386 16.6068 8.58629 16.611 8.16185C16.6061 7.73999 16.7172 7.32491 16.9323 6.96195C17.1433 6.60452 17.4431 6.30762 17.8025 6.10005C18.1689 5.88603 18.5862 5.77504 19.0105 5.77891C19.4322 5.77437 19.8471 5.88546 20.2102 6.10005C20.566 6.30944 20.8626 6.60609 21.072 6.96195C21.2868 7.32501 21.3979 7.74002 21.3933 8.16185C21.3973 8.58625 21.2863 9.00375 21.072 9.37013C20.8649 9.7299 20.5679 10.0298 20.2102 10.2405C19.8471 10.4555 19.4324 10.5666 19.0105 10.5616ZM22 17.9975V5.99862H26V17.9975H22ZM30.9737 12.5558C30.9848 12.5674 31.0693 12.7054 31.2272 12.9698C31.3851 13.2342 31.5906 13.5722 31.8439 13.9838C32.0974 14.3952 32.3649 14.8318 32.6463 15.2935C32.9278 15.7553 33.1926 16.1919 33.4408 16.6033C33.6881 17.0147 33.9697 17.4795 34.2857 17.9975H29.9598C29.6893 17.5581 29.4441 17.161 29.2245 16.8061C29.0048 16.4512 28.7713 16.0681 28.5238 15.6569C28.2758 15.246 28.0306 14.8461 27.7882 14.457C27.5458 14.0679 27.3375 13.7271 27.1633 13.4346C26.9883 13.1418 26.8671 12.9446 26.7997 12.8431C26.6325 12.591 26.5336 12.2998 26.5127 11.9981C26.5294 11.7085 26.6226 11.4285 26.7828 11.1866C26.8503 11.074 26.9743 10.874 27.1545 10.5867C27.3348 10.2994 27.546 9.95858 27.7882 9.56425C28.0304 9.16992 28.2756 8.76713 28.5238 8.3559C28.772 7.94467 29.0055 7.55876 29.2245 7.19823C29.4445 6.83808 29.6897 6.43811 29.9598 5.99834H34.2857L30.9396 11.457C30.8361 11.6191 30.7777 11.8059 30.7706 11.9981C30.7818 12.1998 30.8528 12.3938 30.9737 12.5558Z" fill="white"/>
<g clip-path="url(#clip0_5919_2921)">
<path d="M8.49279 30.2853C8.62291 30.6474 8.68796 31.0773 8.68796 31.5751C8.68796 32.254 8.57199 32.8225 8.34005 33.2807C8.10811 33.739 7.78 34.1095 7.35572 34.3923C6.93144 34.6752 6.43927 34.8789 5.87922 35.0033C5.31917 35.1278 4.71669 35.19 4.07178 35.19C3.80024 35.19 3.53152 35.1787 3.26564 35.1561C2.99976 35.1334 2.73388 35.1023 2.46799 35.0627C2.20211 35.0231 1.92774 34.9665 1.64488 34.893C1.36203 34.8195 1.06786 34.7261 0.762374 34.613L0.541748 32.9328C0.813289 33.0346 1.09897 33.1336 1.3988 33.2298C1.69862 33.326 2.00694 33.408 2.32373 33.4759C2.64053 33.5438 2.95733 33.5975 3.27412 33.6371C3.59092 33.6767 3.89641 33.6965 4.19058 33.6965C4.54132 33.6965 4.85528 33.6739 5.13248 33.6286C5.40968 33.5834 5.65576 33.5098 5.87073 33.408C6.0857 33.3062 6.26673 33.1704 6.41381 33.0007C6.5609 32.831 6.67404 32.633 6.75324 32.4067C6.83244 32.1804 6.87204 31.9202 6.87204 31.626C6.87204 31.3319 6.82961 31.0999 6.74475 30.8963C6.6599 30.6926 6.54393 30.5229 6.39684 30.3871C6.24976 30.2514 6.07156 30.1326 5.86225 30.0307C5.65294 29.9289 5.41816 29.8412 5.15794 29.7677C4.89771 29.6941 4.61486 29.6234 4.30937 29.5555C3.93601 29.4763 3.57112 29.3802 3.21473 29.267C2.85833 29.1539 2.52739 29.0181 2.22191 28.8597C1.91642 28.7013 1.64488 28.5033 1.40729 28.2657C1.16969 28.0281 0.98583 27.7424 0.855717 27.4087C0.725604 27.0749 0.660546 26.6761 0.660546 26.2122C0.660546 25.6239 0.765203 25.1147 0.974515 24.6848C1.18383 24.2548 1.48366 23.8984 1.874 23.6156C2.26433 23.3327 2.72539 23.1234 3.25715 22.9876C3.78892 22.8519 4.38292 22.784 5.03914 22.784C5.33331 22.784 5.62182 22.7981 5.90467 22.8264C6.18753 22.8547 6.46473 22.8971 6.73627 22.9537C7.00781 23.0103 7.27652 23.0782 7.5424 23.1574C7.80828 23.2366 8.06002 23.3384 8.29762 23.4628L8.06003 24.9563C7.85637 24.8432 7.63292 24.7442 7.38966 24.6593C7.14641 24.5745 6.89467 24.5037 6.63444 24.4472C6.37421 24.3906 6.10833 24.3482 5.83679 24.3199C5.56525 24.2916 5.29937 24.2775 5.03914 24.2775C4.72234 24.2775 4.431 24.2973 4.16512 24.3369C3.89924 24.3765 3.66447 24.4444 3.46081 24.5405C3.25715 24.6367 3.07896 24.7555 2.92621 24.8969C2.77347 25.0383 2.66033 25.2109 2.58679 25.4145C2.51325 25.6182 2.47648 25.8501 2.47648 26.1104C2.47648 26.3706 2.51325 26.594 2.58679 26.7807C2.66033 26.9674 2.77065 27.1258 2.91773 27.2559C3.06481 27.386 3.23736 27.4992 3.43535 27.5954C3.63335 27.6915 3.85963 27.7736 4.1142 27.8414C4.36877 27.9093 4.64314 27.9772 4.93731 28.0451C5.32199 28.1243 5.69536 28.2205 6.05741 28.3336C6.41947 28.4467 6.76172 28.5853 7.08418 28.7494C7.40663 28.9135 7.68949 29.1199 7.93274 29.3689C8.176 29.6178 8.36268 29.9232 8.49279 30.2853ZM15.0098 33.6371C14.9136 33.6541 14.8174 33.6711 14.7213 33.688C14.6251 33.705 14.5317 33.7163 14.4412 33.722C14.3507 33.7276 14.2659 33.7305 14.1867 33.7305C13.8925 33.7305 13.6407 33.6796 13.4314 33.5777C13.2221 33.4759 13.0609 33.326 12.9478 33.128C12.8346 32.93 12.778 32.6896 12.778 32.4067V27.7057H15.171L15.3577 26.348H12.778V23.6665L11.047 24.2775V26.348H9.74018L9.5535 27.7057H11.047V32.7631C11.047 33.1478 11.0979 33.4787 11.1997 33.7559C11.3015 34.0331 11.4345 34.2622 11.5985 34.4433C11.7626 34.6243 11.9549 34.7657 12.1756 34.8675C12.3962 34.9694 12.631 35.0429 12.8799 35.0882C13.1288 35.1334 13.372 35.1561 13.6096 35.1561C13.7907 35.1561 13.9689 35.1504 14.1442 35.1391C14.3196 35.1278 14.4808 35.1108 14.6279 35.0882C14.775 35.0655 14.9136 35.0401 15.0437 35.0118C15.1738 34.9835 15.2841 34.9581 15.3746 34.9354L15.4765 33.5268C15.4199 33.5494 15.352 33.5692 15.2728 33.5862C15.1936 33.6032 15.1059 33.6202 15.0098 33.6371ZM24.6749 28.2403C25.0256 28.9021 25.201 29.68 25.201 30.5738C25.201 31.5129 25.0115 32.3275 24.6325 33.0177C24.2535 33.7078 23.7245 34.2396 23.0457 34.613C22.3668 34.9863 21.5861 35.173 20.7036 35.173C19.8211 35.173 19.1083 34.9977 18.4634 34.6469C17.8185 34.2962 17.3235 33.7842 16.9784 33.111C16.6333 32.4378 16.4608 31.6373 16.4608 30.7096C16.4608 29.7818 16.6447 28.9785 17.0124 28.2997C17.3801 27.6208 17.8949 27.0947 18.5568 26.7213C19.2186 26.348 19.9908 26.1613 20.8733 26.1613C21.7558 26.1613 22.5224 26.3423 23.173 26.7044C23.8235 27.0664 24.3242 27.5784 24.6749 28.2403ZM23.4021 30.6078C23.4021 30.1439 23.3511 29.7224 23.2493 29.3434C23.1475 28.9644 22.9919 28.6391 22.7826 28.3675C22.5733 28.096 22.3131 27.8895 22.0019 27.7481C21.6908 27.6067 21.3203 27.536 20.8903 27.536C20.3472 27.536 19.8805 27.6491 19.4902 27.8754C19.0998 28.1017 18.7972 28.4411 18.5822 28.8937C18.3672 29.3462 18.2598 29.9176 18.2598 30.6078C18.2598 31.2979 18.3672 31.8976 18.5822 32.3728C18.7972 32.848 19.0914 33.2044 19.4647 33.442C19.8381 33.6796 20.2793 33.7984 20.7885 33.7984C21.2976 33.7984 21.7502 33.6824 22.1462 33.4504C22.5422 33.2185 22.8505 32.8649 23.0711 32.3897C23.2917 31.9145 23.4021 31.3205 23.4021 30.6078ZM30.8525 26.2886C30.5357 26.3734 30.2358 26.5035 29.953 26.6789C29.6701 26.8543 29.4042 27.0664 29.1553 27.3153C29.1157 27.3549 29.0761 27.4002 29.0365 27.4426V26.1782L27.3055 26.4328V35.0033H29.0365V28.591C29.1666 28.5005 29.2996 28.4156 29.4354 28.3421C29.6107 28.2459 29.7861 28.1639 29.9615 28.096C30.1368 28.0281 30.315 27.9687 30.4961 27.9178C30.6771 27.8669 30.8666 27.8301 31.0646 27.8075C31.2626 27.7849 31.4691 27.7792 31.684 27.7905L31.8877 26.1952C31.5143 26.1726 31.1693 26.2037 30.8525 26.2886ZM32.3968 30.8793H37.1997L37.3185 29.4876H32.5156L32.3968 30.8793ZM50.3185 26.4328C50.5787 27.1909 50.7088 28.0338 50.7088 28.9615C50.7088 29.8893 50.5731 30.7831 50.3015 31.5412C50.03 32.2992 49.6397 32.9498 49.1305 33.4929C48.6214 34.036 48.0076 34.4546 47.2891 34.7487C46.5707 35.0429 45.7589 35.19 44.8538 35.19C43.9486 35.19 43.1595 35.0514 42.4523 34.7742C41.7452 34.497 41.1427 34.0925 40.6449 33.5608C40.1471 33.029 39.768 32.3869 39.5078 31.6345C39.2476 30.8821 39.1175 30.0364 39.1175 29.0973C39.1175 28.1582 39.2504 27.3012 39.5163 26.5262C39.7822 25.7511 40.1669 25.0864 40.6703 24.532C41.1738 23.9776 41.7876 23.5477 42.5117 23.2422C43.2358 22.9367 44.0561 22.784 44.9726 22.784C45.889 22.784 46.6838 22.9311 47.391 23.2252C48.0981 23.5194 48.6978 23.938 49.1899 24.4811C49.6821 25.0242 50.0583 25.6748 50.3185 26.4328ZM48.876 28.9785C48.876 28.0394 48.7204 27.2163 48.4092 26.5092C48.0981 25.8021 47.654 25.2533 47.077 24.863C46.5 24.4726 45.7985 24.2775 44.9726 24.2775C44.1466 24.2775 43.3999 24.4839 42.8002 24.8969C42.2006 25.3099 41.7395 25.8784 41.4171 26.6025C41.0946 27.3266 40.9334 28.1582 40.9334 29.0973C40.9334 29.7988 41.0211 30.4324 41.1964 30.9981C41.3718 31.5638 41.632 32.0475 41.9771 32.4491C42.3222 32.8508 42.7352 33.1591 43.216 33.3741C43.6969 33.589 44.2485 33.6965 44.8707 33.6965C45.493 33.6965 46.087 33.5806 46.5848 33.3486C47.0827 33.1167 47.5013 32.7942 47.8407 32.3813C48.1801 31.9683 48.4375 31.4733 48.6129 30.8963C48.7883 30.3192 48.876 29.68 48.876 28.9785ZM58.2271 31.0999C58.0574 30.9189 57.8594 30.7633 57.6331 30.6332C57.4068 30.5031 57.1692 30.3928 56.9203 30.3023C56.7393 30.2457 56.5611 30.1863 56.3857 30.1241C56.2104 30.0618 56.035 30.0053 55.8596 29.9544C55.6843 29.9034 55.5145 29.8497 55.3505 29.7931C55.1864 29.7366 55.0365 29.6743 54.9008 29.6064C54.7537 29.5272 54.6207 29.4424 54.5019 29.3519C54.3831 29.2614 54.287 29.1539 54.2134 29.0294C54.1399 28.905 54.1031 28.7635 54.1031 28.6051C54.1031 28.4241 54.1427 28.2685 54.2219 28.1384C54.3011 28.0083 54.4199 27.898 54.5783 27.8075C54.7367 27.717 54.9262 27.6491 55.1468 27.6038C55.3675 27.5586 55.6192 27.536 55.9021 27.536C56.0265 27.536 56.1623 27.5416 56.3094 27.5529C56.4565 27.5642 56.6177 27.584 56.7931 27.6123C56.9684 27.6406 57.1438 27.6774 57.3192 27.7226C57.4945 27.7679 57.6727 27.8188 57.8538 27.8754C58.0348 27.9319 58.1988 27.9942 58.3459 28.0621L58.4647 26.6874C58.2498 26.5969 58.0376 26.5177 57.8283 26.4498C57.619 26.3819 57.4068 26.3253 57.1919 26.2801C56.9769 26.2348 56.7648 26.2037 56.5555 26.1867C56.3461 26.1698 56.1397 26.1613 55.936 26.1613C55.4269 26.1613 54.963 26.215 54.5444 26.3225C54.1257 26.43 53.7608 26.5884 53.4497 26.7977C53.1386 27.007 52.8981 27.2729 52.7284 27.5954C52.5587 27.9178 52.4739 28.2997 52.4739 28.7409C52.4739 29.0577 52.5191 29.3377 52.6096 29.581C52.7001 29.8242 52.8189 30.0307 52.966 30.2004C53.1131 30.3702 53.2857 30.5201 53.4837 30.6502C53.6816 30.7803 53.8938 30.8906 54.1201 30.9811C54.2445 31.0264 54.3746 31.0716 54.5104 31.1169C54.6462 31.1621 54.7791 31.2046 54.9092 31.2442C55.0394 31.2838 55.1666 31.3234 55.2911 31.363C55.4156 31.4026 55.5372 31.4422 55.656 31.4818C55.7748 31.5214 55.8907 31.5581 56.0039 31.5921C56.1623 31.6487 56.3094 31.7137 56.4451 31.7873C56.5809 31.8608 56.6969 31.94 56.7931 32.0249C56.8892 32.1097 56.9628 32.2087 57.0137 32.3219C57.0646 32.435 57.09 32.5595 57.09 32.6952C57.09 32.9781 56.9967 33.2015 56.81 33.3656C56.6233 33.5296 56.3801 33.6456 56.0803 33.7135C55.7804 33.7814 55.4608 33.8153 55.1214 33.8153C54.9404 33.8153 54.7395 33.8012 54.5189 33.7729C54.2983 33.7446 54.0663 33.705 53.8231 33.6541C53.5798 33.6032 53.3309 33.541 53.0763 33.4674C52.8218 33.3939 52.5644 33.3118 52.3042 33.2213L52.372 34.6639C52.6662 34.7657 52.9349 34.8477 53.1782 34.91C53.4214 34.9722 53.6534 35.0259 53.874 35.0712C54.0946 35.1165 54.3096 35.1447 54.5189 35.1561C54.7282 35.1674 54.9404 35.173 55.1553 35.173C55.6531 35.173 56.1227 35.1249 56.5639 35.0288C57.0052 34.9326 57.3899 34.7827 57.718 34.579C58.0461 34.3754 58.3035 34.1095 58.4902 33.7814C58.6769 33.4533 58.7702 33.0629 58.7702 32.6104C58.7702 32.2709 58.7221 31.9796 58.6259 31.7363C58.5298 31.4931 58.3968 31.2809 58.2271 31.0999ZM63.4967 33.7559C63.4458 33.7616 63.3864 33.7644 63.3185 33.7644C63.1714 33.7644 63.047 33.7418 62.9451 33.6965C62.8433 33.6513 62.7585 33.5806 62.6906 33.4844C62.6227 33.3882 62.5746 33.2666 62.5463 33.1195C62.518 32.9724 62.5039 32.797 62.5039 32.5934V22.19L60.7728 22.4446V33.3571C60.7728 33.6852 60.8181 33.9652 60.9086 34.1972C60.9991 34.4291 61.1292 34.6186 61.2989 34.7657C61.4686 34.9128 61.6695 35.0175 61.9014 35.0797C62.1334 35.1419 62.3851 35.173 62.6566 35.173C62.7924 35.173 62.9225 35.1674 63.047 35.1561C63.1714 35.1447 63.2931 35.1278 63.4118 35.1051C63.5307 35.0825 63.6296 35.0599 63.7088 35.0373L63.8786 33.6965C63.8107 33.7078 63.7428 33.7192 63.6749 33.7305C63.607 33.7418 63.5476 33.7503 63.4967 33.7559ZM73.7049 30.5738C73.7049 31.5129 73.5154 32.3275 73.1364 33.0177C72.7574 33.7078 72.2284 34.2396 71.5496 34.613C70.8707 34.9863 70.09 35.173 69.2075 35.173C68.325 35.173 67.6122 34.9977 66.9673 34.6469C66.3224 34.2962 65.8274 33.7842 65.4824 33.111C65.1373 32.4378 64.9647 31.6373 64.9647 30.7096C64.9647 29.7818 65.1486 28.9785 65.5163 28.2997C65.884 27.6208 66.3988 27.0947 67.0607 26.7213C67.7226 26.348 68.4948 26.1613 69.3773 26.1613C70.2598 26.1613 71.0263 26.3423 71.6769 26.7044C72.3274 27.0664 72.8281 27.5784 73.1788 28.2403C73.5296 28.9021 73.7049 29.68 73.7049 30.5738ZM71.906 30.6078C71.906 30.1439 71.8551 29.7224 71.7532 29.3434C71.6514 28.9644 71.4958 28.6391 71.2865 28.3675C71.0772 28.096 70.817 27.8895 70.5058 27.7481C70.1947 27.6067 69.8242 27.536 69.3942 27.536C68.8511 27.536 68.3844 27.6491 67.9941 27.8754C67.6038 28.1017 67.3011 28.4411 67.0861 28.8937C66.8712 29.3462 66.7637 29.9176 66.7637 30.6078C66.7637 31.2979 66.8712 31.8976 67.0861 32.3728C67.3011 32.848 67.5953 33.2044 67.9686 33.442C68.342 33.6796 68.7833 33.7984 69.2924 33.7984C69.8015 33.7984 70.2541 33.6824 70.6501 33.4504C71.0461 33.2185 71.3544 32.8649 71.575 32.3897C71.7957 31.9145 71.906 31.3205 71.906 30.6078Z" fill="#9FDAF5"/>
</g>
<defs>
<clipPath id="clip0_5919_2921">
<rect width="74" height="14" fill="white" transform="translate(0 22)"/>
</clipPath>
</defs>
</svg>

<svg xmlns="http://www.w3.org/2000/svg" viewBox="0 0 74 41"><path fill="#fff" d="M0 17.997V6h4v11.998H0ZM9.244 7.908l2.264 10.09H7.2l-2.704-12h2.417a2.276 2.276 0 0 1 1.513.55c.42.346.66.826.819 1.36ZM12 17.998v-12h4v12h-4Zm7.01-7.436a2.382 2.382 0 0 1-2.4-2.4 2.301 2.301 0 0 1 .322-1.2A2.41 2.41 0 0 1 20.21 6.1c.356.21.653.506.862.862.215.363.326.778.321 1.2a2.35 2.35 0 0 1-.321 1.208 2.4 2.4 0 0 1-.862.87 2.3 2.3 0 0 1-1.2.322ZM22 17.997V6h4v11.998h-4Zm8.974-5.441c.01.011.095.15.253.414s.364.602.617 1.014a315.936 315.936 0 0 1 1.597 2.62c.247.41.529.876.845 1.393H29.96c-.27-.439-.516-.836-.736-1.19-.22-.356-.453-.739-.7-1.15-.248-.411-.493-.81-.736-1.2-.242-.39-.45-.73-.625-1.022-.175-.293-.296-.49-.363-.592a1.747 1.747 0 0 1-.287-.845c.016-.29.11-.57.27-.811.067-.113.191-.313.371-.6a182.106 182.106 0 0 0 1.37-2.23l.7-1.159.736-1.2h4.326l-3.346 5.459a1.08 1.08 0 0 0-.17.541c.012.202.083.396.204.558Z"/><g clip-path="url(#a)"><path fill="#9FDAF5" d="M8.493 30.285c.13.362.195.792.195 1.29 0 .679-.116 1.247-.348 1.706-.232.458-.56.828-.984 1.111a4.324 4.324 0 0 1-1.477.611 8.32 8.32 0 0 1-1.807.187c-.272 0-.54-.011-.806-.034a12.812 12.812 0 0 1-.798-.093 7.91 7.91 0 0 1-.823-.17 9.246 9.246 0 0 1-.883-.28l-.22-1.68c.271.102.557.2.857.297.3.096.608.178.925.246.317.068.633.121.95.161.317.04.622.06.917.06.35 0 .664-.023.941-.068.278-.046.524-.12.739-.221.215-.102.396-.238.543-.407.147-.17.26-.368.34-.594.078-.227.118-.487.118-.781 0-.294-.042-.526-.127-.73a1.43 1.43 0 0 0-.348-.509 2.205 2.205 0 0 0-.535-.356 4.253 4.253 0 0 0-.704-.263 15.43 15.43 0 0 0-.849-.213c-.373-.079-.738-.175-1.094-.288a6.277 6.277 0 0 1-.993-.407 3.277 3.277 0 0 1-.815-.594 2.458 2.458 0 0 1-.551-.857c-.13-.334-.195-.733-.195-1.197 0-.588.104-1.097.314-1.527.209-.43.509-.787.899-1.07a4.03 4.03 0 0 1 1.383-.627 7.212 7.212 0 0 1 1.782-.204c.294 0 .583.014.866.042.283.029.56.071.831.128.272.056.54.124.806.203.266.08.518.181.756.306l-.238 1.493a4.29 4.29 0 0 0-.67-.297 6.448 6.448 0 0 0-.756-.212 7.693 7.693 0 0 0-1.595-.17c-.317 0-.608.02-.874.06-.266.04-.5.107-.704.204a2.101 2.101 0 0 0-.535.356 1.291 1.291 0 0 0-.34.518c-.073.203-.11.435-.11.695 0 .26.037.484.11.67.074.187.185.346.332.476.147.13.32.243.517.34.198.096.425.178.68.245.254.068.528.136.822.204.385.08.758.175 1.12.289.362.113.705.251 1.027.415.323.165.605.37.849.62.243.249.43.554.56.916Zm6.517 3.352-.289.051c-.096.017-.19.028-.28.034-.09.006-.175.008-.254.008-.294 0-.546-.05-.756-.152a1.095 1.095 0 0 1-.483-.45 1.432 1.432 0 0 1-.17-.721v-4.701h2.393l.187-1.358h-2.58v-2.681l-1.731.61v2.071H9.74l-.187 1.358h1.494v5.057c0 .385.05.716.153.993.102.277.235.506.399.687.164.181.356.323.577.425.22.101.455.175.704.22.249.045.492.068.73.068.18 0 .359-.006.534-.017a5.546 5.546 0 0 0 .9-.127c.13-.029.24-.054.33-.077l.102-1.408a1.278 1.278 0 0 1-.203.06c-.08.016-.167.033-.263.05Zm9.665-5.397c.35.662.526 1.44.526 2.334 0 .939-.19 1.753-.569 2.444a3.953 3.953 0 0 1-1.586 1.595c-.68.373-1.46.56-2.342.56-.883 0-1.596-.175-2.24-.526a3.542 3.542 0 0 1-1.486-1.536c-.345-.673-.517-1.474-.517-2.401 0-.928.184-1.732.551-2.41a3.914 3.914 0 0 1 1.545-1.579c.662-.373 1.434-.56 2.316-.56.883 0 1.65.181 2.3.543.65.362 1.151.874 1.502 1.536Zm-1.273 2.368c0-.464-.05-.886-.153-1.265a2.745 2.745 0 0 0-.466-.976 2.034 2.034 0 0 0-.781-.619c-.311-.141-.682-.212-1.112-.212-.543 0-1.01.113-1.4.34-.39.226-.693.565-.908 1.018-.215.452-.322 1.024-.322 1.714s.107 1.29.322 1.765c.215.475.51.831.883 1.069s.814.356 1.323.356c.51 0 .962-.116 1.358-.348.396-.232.704-.585.925-1.06.22-.476.331-1.07.331-1.782Zm7.45-4.32a3.334 3.334 0 0 0-.899.39 4.427 4.427 0 0 0-.798.637c-.04.04-.079.085-.119.128v-1.265l-1.73.255v8.57h1.73v-6.412a4.228 4.228 0 0 1 .925-.495c.176-.068.354-.127.535-.178a3.609 3.609 0 0 1 1.188-.127l.204-1.596a3.228 3.228 0 0 0-1.036.094Zm1.545 4.591H37.2l.118-1.391h-4.802l-.12 1.391Zm17.922-4.446c.26.758.39 1.6.39 2.529 0 .927-.136 1.821-.408 2.58a5.55 5.55 0 0 1-1.17 1.95 5.176 5.176 0 0 1-1.842 1.257c-.718.294-1.53.441-2.435.441s-1.694-.139-2.402-.416a4.878 4.878 0 0 1-1.807-1.213 5.322 5.322 0 0 1-1.137-1.927c-.26-.752-.39-1.598-.39-2.537 0-.939.132-1.796.398-2.57.266-.776.65-1.44 1.154-1.995a5.16 5.16 0 0 1 1.842-1.29c.724-.305 1.544-.458 2.46-.458.917 0 1.712.147 2.419.441a4.965 4.965 0 0 1 1.799 1.256 5.548 5.548 0 0 1 1.129 1.952Zm-1.443 2.546c0-.94-.156-1.763-.467-2.47-.31-.707-.755-1.256-1.332-1.646-.577-.39-1.279-.585-2.104-.585-.826 0-1.573.206-2.173.619-.6.413-1.06.981-1.383 1.706-.322.724-.484 1.555-.484 2.494 0 .702.088 1.335.263 1.901.176.566.436 1.05.781 1.451.345.402.758.71 1.239.925.48.215 1.032.322 1.655.322.622 0 1.216-.115 1.714-.347a3.533 3.533 0 0 0 1.256-.968 4.26 4.26 0 0 0 .772-1.485 6.577 6.577 0 0 0 .263-1.918Zm9.351 2.12a2.55 2.55 0 0 0-.594-.466 4.54 4.54 0 0 0-.713-.33c-.18-.057-.359-.117-.534-.179a9.364 9.364 0 0 0-.526-.17 10.863 10.863 0 0 1-.51-.16 3.69 3.69 0 0 1-.45-.188 3.018 3.018 0 0 1-.398-.254 1.118 1.118 0 0 1-.289-.323.818.818 0 0 1-.11-.424.88.88 0 0 1 .119-.467c.08-.13.198-.24.356-.33a1.92 1.92 0 0 1 .569-.204c.22-.045.472-.068.755-.068a5.345 5.345 0 0 1 .891.076c.175.029.35.065.526.11.175.046.354.097.535.153.18.057.345.12.492.187l.119-1.375a8.008 8.008 0 0 0-.637-.237 6.19 6.19 0 0 0-.636-.17 5.08 5.08 0 0 0-.636-.093 7.698 7.698 0 0 0-.62-.026c-.51 0-.973.054-1.392.162a3.506 3.506 0 0 0-1.094.475c-.311.209-.552.475-.722.797-.17.323-.254.705-.254 1.146 0 .317.045.597.136.84a2 2 0 0 0 .356.62c.147.17.32.32.518.45s.41.24.636.33a15.19 15.19 0 0 0 .79.263 31.49 31.49 0 0 1 .746.238c.119.04.235.076.348.11.158.057.305.122.441.195.136.074.252.153.348.238a.867.867 0 0 1 .297.67c0 .283-.093.507-.28.67-.187.165-.43.28-.73.349-.3.067-.62.101-.959.101a4.77 4.77 0 0 1-.602-.042 8.987 8.987 0 0 1-.696-.119c-.243-.05-.492-.113-.747-.187a15.133 15.133 0 0 1-.772-.246l.068 1.443c.294.102.563.184.806.246.243.062.475.116.696.161.22.046.436.074.645.085.21.011.421.017.636.017.498 0 .968-.048 1.409-.144a3.64 3.64 0 0 0 1.154-.45c.328-.204.585-.47.772-.798.187-.328.28-.718.28-1.17 0-.34-.048-.631-.144-.875a1.988 1.988 0 0 0-.399-.636Zm5.27 2.657c-.051.006-.11.008-.178.008a.917.917 0 0 1-.374-.068.612.612 0 0 1-.254-.212.93.93 0 0 1-.145-.364 2.825 2.825 0 0 1-.042-.527V22.19l-1.731.255v10.912c0 .328.045.608.136.84.09.232.22.422.39.569.17.147.37.252.602.314.232.062.484.093.756.093a3.777 3.777 0 0 0 1.052-.136l.17-1.34-.204.033c-.068.012-.127.02-.178.026Zm10.208-3.182c0 .939-.19 1.753-.569 2.444a3.953 3.953 0 0 1-1.586 1.595c-.68.373-1.46.56-2.343.56-.882 0-1.595-.175-2.24-.526a3.542 3.542 0 0 1-1.485-1.536c-.345-.673-.517-1.474-.517-2.401 0-.928.184-1.732.551-2.41a3.914 3.914 0 0 1 1.545-1.579c.662-.373 1.434-.56 2.316-.56.883 0 1.65.181 2.3.543.65.362 1.151.874 1.502 1.536.35.662.526 1.44.526 2.334Zm-1.799.034c0-.464-.05-.886-.153-1.265a2.745 2.745 0 0 0-.466-.976 2.034 2.034 0 0 0-.781-.619c-.311-.141-.682-.212-1.112-.212-.543 0-1.01.113-1.4.34-.39.226-.693.565-.908 1.018-.215.452-.322 1.024-.322 1.714s.107 1.29.322 1.765c.215.475.51.831.883 1.069s.814.356 1.323.356c.51 0 .962-.116 1.358-.348.396-.232.704-.585.925-1.06.22-.476.331-1.07.331-1.782Z"/></g><defs><clipPath id="a"><path fill="#fff" d="M0 22h74v14H0z"/></clipPath></defs></svg>
